X:1
T:Title
%%score 1 { 2 | 3 }
L:1/8
Q:1/4=90
M:2/4
K:E
V:1 treble nm="Grand Piano, Soprano"
V:2 bass nm="Choir Pad, Bass"
V:3 bass 
V:1
 [EG] [EG]2 [EG] | [GB] [FA]2 [DF] | [DF] [DF]2 E | [DF] .[EG]3 | [EG]/[EG]/ [EG]2 [EG] | %5
w: By~Rigdon~McCoy~McIntosh,~1883 * *|||||
 [GB] [FA]2 [CF] | [CF][DF] [FA][EG] | [DF] .E3 | [DF] [DF]2 [DF] | [EG] [FA]2 [EG] | %10
w: |||||
 [FA] [GB]2 [Ac] | [Fd] [Ge]3 | [GB][Ac]- [Ac]/[Bd]/[ce] | [Ac][GB]- [GB]/[EG]/E | %14
w: ||||
 [EF][EG] [FA][EG] | [DF] E3- | E [GB]3- | [GB][Ac] [FA]2 | z [DF]/F/ z [EG]/[CE]/ | z E3 | %20
w: ||||||
 [GB]/[GB]/[Ac]- [Ac]/[Bd]/[ce] | [Ac][GB]- [GB]/[EG]/E | [EF][EG] [FA][EG] | [DF] E3- | E4 |] %25
w: |||||
V:2
 B, B,2 B, | B, B,2 B, | B, B,2 B, | B, .B,3 | B,/B,/ B,2 B, | B,[K:treble] C2 C | C B,2 B, | %7
 A, .G,3 | B, B,2 B, | B, B,2 B, | B,B,[K:treble] EE | B, B,3 | E E2 E | EE- E/[K:bass]B,/B, | %14
 C B,2 B, | A, G,3- | G,2 z2 | z4 | z4 | z4 | E/E/ E2 E | EE- E/[K:bass]B,/B, | C B,2 B, | %23
 A, G,3- | G,4 |] %25
V:3
 E, E,2 E, | E, B,,2 B,, | B,, B,,2 B,, | B,, .E,3 | E,/E,/ E,2 E, | E, A,,2 A,, | A,, B,,2 B,, | %7
 B,, .E,3 | B,, B,,2 B,, | B,, B,,2 B,, | B,, B,,2 B,, | B,, E,3 | E, A,2 A, | A,E,- E,/E,/G, | %14
 .A,2 z B,, | B,, E,3- | E,2 z2 | z4 | z4 | z4 | E,/E,/ A,2 A, | A,E,- E,/E,/G, | .A,2 z B,, | %23
 B,, E,3- | E,4 |] %25

